app/images/icons/delivery.svg

<svg xmlns="http://www.w3.org/2000/svg" preserveAspectRatio="xMidYMid" width="53.75" height="36.44"><g fill="#a3bbc8"><path d="M45.968 17.252v1.992a.786.786 0 01-1.571 0v-1.992a.786.786 0 111.571 0zM35.944 13.53V6.14c0-.434.351-.786.785-.786h4.301a4.945 4.945 0 014.938 4.941v3.235a.786.786 0 01-.786.787h-8.453a.785.785 0 01-.785-.787zm1.571-.786h6.882v-2.449a3.371 3.371 0 00-3.367-3.368h-3.515v5.817zm10.809 12.423h-2.782a4.984 4.984 0 01-4.912 4.192 4.983 4.983 0 01-4.912-4.192H24.466a4.982 4.982 0 01-4.911 4.192 4.983 4.983 0 01-4.912-4.192h-2.419a.786.786 0 01-.785-.787V.794c0-.434.351-.786.785-.786h6.046a.786.786 0 010 1.572h-5.261v22.014h1.634a4.983 4.983 0 014.912-4.193 4.982 4.982 0 014.911 4.193h8.336v-1.125a.786.786 0 111.571 0v1.125h1.345a4.983 4.983 0 014.912-4.193 4.983 4.983 0 014.912 4.193h1.997V10.295c0-3.591-2.92-6.513-6.509-6.513h-6.657V18.8a.786.786 0 01-1.571 0V1.58h-11.39a.785.785 0 010-1.572h12.175c.434 0 .786.352.786.786v1.415h6.657c4.455 0 8.079 3.628 8.079 8.086V24.38a.786.786 0 01-.785.787zm-28.769-4.193a3.409 3.409 0 00-3.404 3.406 3.41 3.41 0 003.404 3.407 3.409 3.409 0 003.403-3.407 3.409 3.409 0 00-3.403-3.406zm21.075 0a3.408 3.408 0 00-3.403 3.406v.001a3.409 3.409 0 003.403 3.406 3.41 3.41 0 003.404-3.407 3.409 3.409 0 00-3.404-3.406zm0 5.433a2.028 2.028 0 01-2.025-2.027c0-1.117.909-2.026 2.025-2.026a2.028 2.028 0 010 4.053zm0-2.481a.454.454 0 100 .909.454.454 0 000-.909zm-21.075 2.481a2.028 2.028 0 010-4.053 2.027 2.027 0 010 4.053zm0-2.481a.455.455 0 10-.001.909.455.455 0 00.001-.909zM9.527 17.352H3.925a.786.786 0 010-1.572h5.602a.785.785 0 010 1.572zM9.003 6.346H2.877a.786.786 0 010-1.572h6.126a.786.786 0 110 1.572zm-.785 5.503a.786.786 0 01-.785.786H.783a.785.785 0 010-1.572h6.65c.433 0 .785.352.785.786zM.783 22.069H4.17a.786.786 0 010 1.573H.783a.786.786 0 010-1.573zm6.006 0h.644a.786.786 0 010 1.573h-.644a.787.787 0 010-1.573z" fill-rule="evenodd"/><circle cx="43.938" cy="26.645" r="9.813" opacity=".34"/></g></svg>

<svg xmlns="http://www.w3.org/2000/svg" xmlns:xlink="http://www.w3.org/1999/xlink" preserveAspectRatio="xMidYMid" width="53.75" height="36.44" viewBox="0 0 53.75 36.44">
  <defs>
    <style>
      .cls-1, .cls-2 {
        fill: #a3bbc8;
      }

      .cls-1 {
        fill-rule: evenodd;
      }

      .cls-2 {
        opacity: 0.34;
      }
    </style>
  </defs>
  <g>
    <path d="M45.968,17.252 L45.968,19.244 C45.968,19.678 45.616,20.030 45.182,20.030 C44.749,20.030 44.397,19.678 44.397,19.244 L44.397,17.252 C44.397,16.817 44.749,16.465 45.182,16.465 C45.616,16.465 45.968,16.817 45.968,17.252 ZM35.944,13.530 L35.944,6.140 C35.944,5.706 36.295,5.354 36.729,5.354 L41.030,5.354 C43.753,5.354 45.968,7.570 45.968,10.295 L45.968,13.530 C45.968,13.965 45.616,14.317 45.182,14.317 L36.729,14.317 C36.295,14.317 35.944,13.965 35.944,13.530 ZM37.515,12.744 L44.397,12.744 L44.397,10.295 C44.397,8.438 42.887,6.927 41.030,6.927 L37.515,6.927 L37.515,12.744 ZM48.324,25.167 L45.542,25.167 C45.164,27.540 43.105,29.359 40.630,29.359 C38.154,29.359 36.096,27.540 35.718,25.167 L24.466,25.167 C24.089,27.540 22.030,29.359 19.555,29.359 C17.079,29.359 15.021,27.540 14.643,25.167 L12.224,25.167 C11.790,25.167 11.439,24.814 11.439,24.380 L11.439,0.794 C11.439,0.360 11.790,0.008 12.224,0.008 L18.270,0.008 C18.704,0.008 19.056,0.360 19.056,0.794 C19.056,1.228 18.704,1.580 18.270,1.580 L13.009,1.580 L13.009,23.594 L14.643,23.594 C15.021,21.220 17.079,19.401 19.555,19.401 C22.030,19.401 24.089,21.220 24.466,23.594 L32.802,23.594 L32.802,22.469 C32.802,22.035 33.154,21.683 33.587,21.683 C34.021,21.683 34.373,22.035 34.373,22.469 L34.373,23.594 L35.718,23.594 C36.096,21.220 38.154,19.401 40.630,19.401 C43.106,19.401 45.164,21.220 45.542,23.594 L47.539,23.594 L47.539,10.295 C47.539,6.704 44.619,3.782 41.030,3.782 L34.373,3.782 L34.373,18.800 C34.373,19.234 34.021,19.586 33.587,19.586 C33.154,19.586 32.802,19.234 32.802,18.800 L32.802,1.580 L21.412,1.580 C20.978,1.580 20.627,1.228 20.627,0.794 C20.627,0.360 20.978,0.008 21.412,0.008 L33.587,0.008 C34.021,0.008 34.373,0.360 34.373,0.794 L34.373,2.209 L41.030,2.209 C45.485,2.209 49.109,5.837 49.109,10.295 L49.109,24.380 C49.109,24.814 48.758,25.167 48.324,25.167 ZM19.555,20.974 C17.678,20.974 16.151,22.502 16.151,24.380 C16.151,26.259 17.678,27.787 19.555,27.787 C21.431,27.787 22.958,26.259 22.958,24.380 C22.958,22.502 21.431,20.974 19.555,20.974 ZM40.630,20.974 C38.754,20.974 37.227,22.501 37.227,24.380 C37.227,24.380 37.227,24.380 37.227,24.380 C37.227,24.381 37.227,24.381 37.227,24.381 C37.227,26.259 38.754,27.787 40.630,27.787 C42.507,27.787 44.034,26.259 44.034,24.380 C44.034,22.502 42.507,20.974 40.630,20.974 ZM40.630,26.407 C39.514,26.407 38.605,25.498 38.605,24.380 C38.605,23.263 39.514,22.354 40.630,22.354 C41.747,22.354 42.655,23.263 42.655,24.380 C42.655,25.498 41.747,26.407 40.630,26.407 ZM40.630,23.926 C40.380,23.926 40.176,24.129 40.176,24.380 C40.176,24.631 40.380,24.835 40.630,24.835 C40.880,24.835 41.084,24.631 41.084,24.380 C41.084,24.129 40.880,23.926 40.630,23.926 ZM19.555,26.407 C18.438,26.407 17.530,25.498 17.530,24.380 C17.530,23.263 18.438,22.354 19.555,22.354 C20.671,22.354 21.579,23.263 21.579,24.380 C21.579,25.498 20.671,26.407 19.555,26.407 ZM19.555,23.926 C19.304,23.926 19.100,24.129 19.100,24.380 C19.100,24.631 19.304,24.835 19.555,24.835 C19.805,24.835 20.009,24.631 20.009,24.380 C20.009,24.129 19.805,23.926 19.555,23.926 ZM9.527,17.352 L3.925,17.352 C3.491,17.352 3.139,17.000 3.139,16.566 C3.139,16.132 3.491,15.780 3.925,15.780 L9.527,15.780 C9.961,15.780 10.312,16.132 10.312,16.566 C10.312,17.000 9.961,17.352 9.527,17.352 ZM9.003,6.346 L2.877,6.346 C2.444,6.346 2.092,5.994 2.092,5.559 C2.092,5.126 2.444,4.774 2.877,4.774 L9.003,4.774 C9.437,4.774 9.789,5.126 9.789,5.559 C9.789,5.994 9.437,6.346 9.003,6.346 ZM8.218,11.849 C8.218,12.283 7.866,12.635 7.433,12.635 L0.783,12.635 C0.349,12.635 -0.002,12.283 -0.002,11.849 C-0.002,11.415 0.349,11.063 0.783,11.063 L7.433,11.063 C7.866,11.063 8.218,11.415 8.218,11.849 ZM0.783,22.069 L4.170,22.069 C4.604,22.069 4.956,22.421 4.956,22.855 C4.956,23.289 4.604,23.642 4.170,23.642 L0.783,23.642 C0.349,23.642 -0.002,23.289 -0.002,22.855 C-0.002,22.421 0.349,22.069 0.783,22.069 ZM6.789,22.069 L7.433,22.069 C7.866,22.069 8.218,22.421 8.218,22.855 C8.218,23.289 7.866,23.642 7.433,23.642 L6.789,23.642 C6.355,23.642 6.003,23.289 6.003,22.855 C6.003,22.421 6.355,22.069 6.789,22.069 Z" class="cls-1"/>
    <circle cx="43.938" cy="26.645" r="9.813" class="cls-2"/>
  </g>
</svg>
